projects/vfh1/img/icons-service/material.svg

<svg viewBox="0 0 33 28" fill="none" xmlns="http://www.w3.org/2000/svg">
<g clip-path="url(#clip0_451_1436)">
<path d="M16.2 14.5C16.2 13.943 16.4213 13.4089 16.8151 13.0151C17.2089 12.6212 17.7431 12.4 18.3 12.4C18.857 12.4 19.3911 12.6212 19.7849 13.0151C20.1788 13.4089 20.4 13.943 20.4 14.5C20.4 15.0569 20.1788 15.5911 19.7849 15.9849C19.3911 16.3787 18.857 16.6 18.3 16.6C17.7431 16.6 17.2089 16.3787 16.8151 15.9849C16.4213 15.5911 16.2 15.0569 16.2 14.5Z" fill="#42474D"/>
<path fill-rule="evenodd" clip-rule="evenodd" d="M7.1 4C6.54305 4 6.0089 4.22125 5.61508 4.61508C5.22125 5.0089 5 5.54305 5 6.1V21.5C5 22.057 5.22125 22.5911 5.61508 22.9849C6.0089 23.3787 6.54305 23.6 7.1 23.6H7.8V25H9.2V23.6H21.8V25H23.2V23.6H23.9C24.457 23.6 24.9911 23.3787 25.3849 22.9849C25.7788 22.5911 26 22.057 26 21.5V6.1C26 5.54305 25.7788 5.0089 25.3849 4.61508C24.9911 4.22125 24.457 4 23.9 4H7.1ZM7.8 8.2V12.4H9.2V8.2H7.8ZM18.3 11C17.3717 11 16.4815 11.3687 15.8251 12.0251C15.1687 12.6815 14.8 13.5717 14.8 14.5C14.8 15.4283 15.1687 16.3185 15.8251 16.9749C16.4815 17.6313 17.3717 18 18.3 18C19.2283 18 20.1185 17.6313 20.7749 16.9749C21.4313 16.3185 21.8 15.4283 21.8 14.5C21.8 13.5717 21.4313 12.6815 20.7749 12.0251C20.1185 11.3687 19.2283 11 18.3 11ZM7.8 19.4V15.2H9.2V19.4H7.8Z" fill="#42474D"/>
</g>
<defs>
<clipPath id="clip0_451_1436">
<rect width="21" height="21" fill="white" transform="translate(5 4)"/>
</clipPath>
</defs>
</svg>

<svg viewBox="0 0 33 28" fill="none" xmlns="http://www.w3.org/2000/svg"><g clip-path="url(#clip0_451_1436)" fill="#42474D"><path d="M16.2 14.5a2.1 2.1 0 114.2 0 2.1 2.1 0 01-4.2 0z"/><path fill-rule="evenodd" clip-rule="evenodd" d="M7.1 4A2.1 2.1 0 005 6.1v15.4a2.1 2.1 0 002.1 2.1h.7V25h1.4v-1.4h12.6V25h1.4v-1.4h.7a2.1 2.1 0 002.1-2.1V6.1A2.1 2.1 0 0023.9 4H7.1zm.7 4.2v4.2h1.4V8.2H7.8zM18.3 11a3.5 3.5 0 100 7 3.5 3.5 0 000-7zM7.8 19.4v-4.2h1.4v4.2H7.8z"/></g><defs><clipPath id="clip0_451_1436"><path fill="#fff" transform="translate(5 4)" d="M0 0h21v21H0z"/></clipPath></defs></svg>
